src/fantasticon/icons/times-small.svg

<svg width="24" height="24" viewBox="0 0 24 24" fill="none" xmlns="http://www.w3.org/2000/svg">
<path fill-rule="evenodd" clip-rule="evenodd" d="M15.7436 8.19145C15.4807 7.93303 15.058 7.93669 14.7996 8.19961L11.992 11.0562L9.13542 8.24865C8.87249 7.99023 8.44986 7.99389 8.19145 8.25682C7.93303 8.51974 7.93669 8.94237 8.19961 9.20079L11.0562 12.0084L8.24897 14.8646C7.99056 15.1275 7.99421 15.5501 8.25714 15.8086C8.52006 16.067 8.94269 16.0633 9.20111 15.8004L12.0083 12.9442L14.8646 15.7514C15.1275 16.0099 15.5501 16.0062 15.8086 15.7433C16.067 15.4804 16.0633 15.0577 15.8004 14.7993L12.9441 11.992L15.7518 9.13542C16.0102 8.87249 16.0065 8.44986 15.7436 8.19145Z" fill="#212121"/>
</svg>

<?xml version="1.0" encoding="UTF-8"?><svg id="a" xmlns="http://www.w3.org/2000/svg" viewBox="0 0 24 24"><path d="M15.74,8.19c-.26-.26-.69-.25-.94,0l-2.81,2.86-2.86-2.81c-.26-.26-.69-.25-.94,0-.26,.26-.25,.69,0,.94l2.86,2.81-2.81,2.86c-.26,.26-.25,.69,0,.94,.26,.26,.69,.25,.94,0l2.81-2.86,2.86,2.81c.26,.26,.69,.25,.94,0,.26-.26,.25-.69,0-.94l-2.86-2.81,2.81-2.86c.26-.26,.25-.69,0-.94Z"/></svg>
